X:10294
T:Marcha Nupcial Asturiana (Arrg. D)
R:marcha
Z:Mtodu de Gaita
M:6/8
L:1/8
Q:1/4=120
K:D
f|:"D"d2 A "D"d2 e|"D"f3-"D"faf|"A"e2 e "A"ece|"D"a2 f "D"d2 f|
"D"d2 A "D"d2 e|"D"f3-"D"faf|"A"e2 e "A"ece|1 "D"d3-"D"d2 f:|2 "D"d3 "D"
A2 A||
"D"f2 f "D"fef|"D"agf "A"edc|"Bm"BcB "Bm"BAB|"Bm"dcB "D"A2 d|"D"f2 f "D"
fef|"D"agf "A"edc|"Bm"Bcd "A"ece|"D"d3 "D"A2 A|
"D"f2 f "D"fef|"D"agf "A"edc|"Bm"BcB "Bm"BAB|"Bm"dcB "D"A2 A|"D"dAd "D"f
df|"D"agf "A"edc|"Bm"Bcd "A"ece|"D"d4 z2|
